X: 8
T: O inextimabilis dilectio
C: Anonymous
%%abc-version 2.0
%%abcx-abcm2ps-target-version 5.9.1 (29 Sep 2008)
%%abc-creator hum2abc beta
%%abcx-conversion-date 2022/03/06 13:05:55
%%abc-copyright Copyright 2008, Pavanello, Agnese
%%abc-edited-by Mair-Gruber, Roland
%%humdrum-veritas 770043927
%%humdrum-veritas-data 1098725301
%%linebreak <none>
%%barnumbers 0
L: 1/4
M: 2/2
N: Derived from Ano0423-O_inextimabilis_dilectio.krn
%%staves [1 2 3 4]
V: 1 clef=treble
V: 2 clef=treble-8
V: 3 clef=treble-8
V: 4 clef=bass
K: C
[V:1] G4 | 
[V:2] d4 | 
[V:3] G4 | 
[V:4] G,,4 | 
[V:1] G4 | 
[V:2] d4 | 
[V:3] G4 | 
[V:4] G,,4 | 
[V:1] A4- | 
[V:2] f4- | 
[V:3] c4- | 
[V:4] F,4- | 
[V:1] A2A2 | 
[V:2] f2f2 | 
[V:3] c2c2 | 
[V:4] F,2F,2 | 
[V:1] c4- | 
[V:2] e4- | 
[V:3] c4- | 
[V:4] A,4- | 
[V:1] c2c2 | 
[V:2] e2^f2 | 
[V:3] c2c2 | 
[V:4] A,2A,2 | 
[V:1] !fermata!B4 | 
[V:2] !fermata!g4 | 
[V:3] !fermata!d4 | 
[V:4] !fermata!G,4 | 
[V:1] c4 | 
[V:2] e4 | 
[V:3] c4 | 
[V:4] A,4 | 
[V:1] c2c2 | 
[V:2] e2e2 | 
[V:3] c2c2 | 
[V:4] A,2A,2 | 
[V:1] A4 | 
[V:2] f2c3/d/ | 
[V:3] c4 | 
[V:4] F,4 | 
[V:1] G2A2- | 
[V:2] e2A2- | 
[V:3] c4 | 
[V:4] E,2F,2- | 
[V:1] AGFE | 
[V:2] A2c2 | 
[V:3] c4 | 
[V:4] F,E,C,2 | 
[V:1] D2G2- | 
[V:2] dBc2 | 
[V:3] B2G2 | 
[V:4] G,2E,2 | 
[V:1] G2^F2 | 
[V:2] d4 | 
[V:3] A4 | 
[V:4] D,4 | 
[V:1] !fermata!G4 | 
[V:2] !fermata!d4 | 
[V:3] !fermata!G4 | 
[V:4] !fermata!G,,4 | 
[V:1] G4 | 
[V:2] d4 | 
[V:3] B4 | 
[V:4] G,4 | 
[V:1] A4 | 
[V:2] f4 | 
[V:3] c4 | 
[V:4] F,4 | 
[V:1] A4 | 
[V:2] f4 | 
[V:3] c4 | 
[V:4] F,4 | 
[V:1] c4 | 
[V:2] z2f2 | 
[V:3] A3B | 
[V:4] F,4 | 
[V:1] c2B2- | 
[V:2] e>fg2- | 
[V:3] c2d2- | 
[V:4] A,2G,2- | 
[V:1] BAA2- | 
[V:2] g2e2- | 
[V:3] d2c2 | 
[V:4] G,2A,2 | 
[V:1] A2^G2 | 
[V:2] e4 | 
[V:3] B4 | 
[V:4] E,4 | 
[V:1] A4 | 
[V:2] c4 | 
[V:3] A4 | 
[V:4] F,4 | 
[V:1] z2E2 | 
[V:2] e2eg- | 
[V:3] G4 | 
[V:4] C,4 | 
[V:1] E2E2 | 
[V:2] g/f/e/d<cB/ | 
[V:3] G2G2 | 
[V:4] C,2E,2 | 
[V:1] F2F2 | 
[V:2] d4 | 
[V:3] A3B | 
[V:4] D,2D,2 | 
[V:1] !fermata!E4 | 
[V:2] !fermata!G4 | 
[V:3] !fermata!c4 | 
[V:4] !fermata!C,4 | 
[V:1] G4 | 
[V:2] e4 | 
[V:3] c4 | 
[V:4] C,4 | 
[V:1] A4 | 
[V:2] f4 | 
[V:3] c4 | 
[V:4] F,4 | 
[V:1] G4 | 
[V:2] e4 | 
[V:3] c4 | 
[V:4] C,4 | 
[V:1] E2F2- | 
[V:2] z2c2- | 
[V:3] c2A2- | 
[V:4] C,2F,2 | 
[V:1] FED2 | 
[V:2] c2A2- | 
[V:3] AGF2 | 
[V:4] C,2D,2 | 
[V:1] C2E2- | 
[V:2] A2B2 | 
[V:3] E2G2- | 
[V:4] A,,2G,,2 | 
[V:1] EDD2- | 
[V:2] c2A2- | 
[V:3] GAF2 | 
[V:4] C,2D,2 | 
[V:1] D2^C2 | 
[V:2] A4 | 
[V:3] E4 | 
[V:4] A,,4 | 
[V:1] D4 | 
[V:2] a3f | 
[V:3] D2A2 | 
[V:4] z2D,2 | 
[V:1] z4 | 
[V:2] g2f2 | 
[V:3] B2d2- | 
[V:4] G,2D,2 | 
[V:1] z2A2 | 
[V:2] e4 | 
[V:3] d2^c2 | 
[V:4] A,4 | 
[V:1] B2d2- | 
[V:2] d4 | 
[V:3] d2B2 | 
[V:4] D,4 | 
[V:1] d2^c2 | 
[V:2] e4 | 
[V:3] A4 | 
[V:4] z4 | 
[V:1] d3c/B/ | 
[V:2] defg | 
[V:3] z2d2- | 
[V:4] D,3E, | 
[V:1] A4 | 
[V:2] ae^f2 | 
[V:3] d2c2 | 
[V:4] F,G,A,2 | 
[V:1] z2d2- | 
[V:2] gdg2- | 
[V:3] B2G2 | 
[V:4] G,4 | 
[V:1] d2c2 | 
[V:2] g2^f2 | 
[V:3] A4 | 
[V:4] z4 | 
[V:1] B2G2 | 
[V:2] g4 | 
[V:3] G4 | 
[V:4] z2G,2 | 
[V:1] A4 | 
[V:2] c3d | 
[V:3] z2c2 | 
[V:4] F,4 | 
[V:1] G2A2- | 
[V:2] e2f2 | 
[V:3] B2c2- | 
[V:4] G,2F,2- | 
[V:1] AG/F/G2 | 
[V:2] cde2 | 
[V:3] cB/A/Bc | 
[V:4] F,2E,2 | 
[V:1] !fermata!^F4- | 
[V:2] A2BA | 
[V:3] d3c/B/ | 
[V:4] !fermata!D,4- | 
[V:1] F4 |]  
[V:2] !fermata!d4 |]  
[V:3] !fermata!A4 |]  
[V:4] D,4 |]  


